X: 9207
T: Dan Breen's
R: reel
M: 4/4
K: Adorian
egdB A2AG|EA~A2 ABcd|e2dB ABAG|EGGF GABd:|
e2ge edBd|eA~A2 eA~A2|e2ge edBd|d2ef g2fg:|

